X:1
T:Title
%%score 1 { 2 | 3 }
L:1/8
Q:1/4=110
M:4/4
K:Eb
V:1 treble nm="Grand Piano, Staff 1"
V:2 bass nm="Choir Pad, St. David, CM"
V:3 bass 
V:1
 E2 [FB]2 [Ee]2 [EG]2 | [EB]2 [EA]2 [EG]2 [DF]2 | E2 [B,B]2 [B,G]2 [CA]2 | [Ec]2 [EB]6 | %4
w: By~Thomas~Ravenscroft,~1621 * * *||||
 [EB]2 [Ec]2 [EG]2 [EB]2 | E2 [EA]2 [EG]2 [DF]2 | [DB]2 [CE]2 [B,G]2 [CA]2 | [DF]2 E6- | %8
w: ||||
 E2 z2 z4 |] %9
w: |
V:2
 G,2 B,2 C2 B,2 | B,2 C2 B,2 B,2 | G,2 F,2 G,2 E,2 | A,2 G,6 | G,2 A,2 B,2 B,2 | G,2 C2 B,2 B,2 | %6
 B,2 G,2 G,2 F,2 | B,A, G,6- | G,2 z2 z4 |] %9
V:3
 E,2 D,2 C,2 E,2 | G,,2 A,,2 E,2 B,,2 | C,2 D,2 E,2 C,2 | A,,2 E,6 | E,2 A,,2 E,2 G,,2 | %5
 C,2 A,,2 E,2 B,,2 | B,,2 C,2 E,2 A,,2 | B,,2 E,6- | E,2 z2 z4 |] %9

